public/images/brand-hero.svg

<svg fill="none" height="381" viewBox="0 0 443 381" width="443" xmlns="http://www.w3.org/2000/svg"><path d="m442.044 87.757v43.091c-.001.398-.16.78-.442 1.061-.282.282-.663.441-1.062.442h-1.07v224.477c0 6.212-2.47 12.169-6.865 16.561-4.396 4.393-10.357 6.86-16.573 6.861h-140.36c-3.077 0-6.125-.607-8.968-1.784s-5.426-2.902-7.602-5.077-3.902-4.757-5.079-7.599c-1.178-2.841-1.783-5.887-1.783-8.962v-216.604h-.774c-.281 0-.551-.111-.751-.309-.199-.198-.312-.467-.313-.748v-24.524c0-.139.028-.278.081-.407s.132-.246.231-.345c.098-.098.216-.176.345-.23.129-.053.267-.081.407-.081h.774v-9.237h-.781c-.295-.001-.577-.12-.785-.329-.209-.209-.325-.492-.324-.787v-24.1892c0-.2939.117-.5755.325-.7832.208-.2078.49-.3249.784-.3256h.781v-12.6098h-.794c-.129.0001-.258-.0252-.377-.0746-.12-.0494-.228-.1219-.32-.2133-.091-.0914-.164-.2-.213-.3195-.05-.1194-.075-.2475-.075-.3768v-13.2003c0-.2618.103-.5131.288-.6988.184-.1857.435-.2907.697-.2918h.794v-26.7287c.001-6.2101 2.469-12.1657 6.864-16.55693 4.394-4.3912 10.354-6.85824381 16.568-6.85847h140.36c6.215-.00002807 12.176 2.46673 16.571 6.85779 4.395 4.39101 6.865 10.34691 6.867 16.55761v62.8392h1.07c.399.0011.78.1597 1.062.4412s.441.6631.442 1.0612z" fill="#3f3d56"/><path d="m352.614 12.0107h-22.807c-.922 0-1.669.7467-1.669 1.6677v1.97c0 .921.747 1.6677 1.669 1.6677h22.807c.922 0 1.669-.7467 1.669-1.6677v-1.97c0-.921-.747-1.6677-1.669-1.6677z" fill="#e6e8ec"/><path d="m361.248 17.6726c1.663 0 3.011-1.3473 3.011-3.0092 0-1.662-1.348-3.0092-3.011-3.0092s-3.012 1.3472-3.012 3.0092c0 1.6619 1.349 3.0092 3.012 3.0092z" fill="#e6e8ec"/><path d="m428 26.6773v326.6517c-.002 3.892-1.568 7.623-4.355 10.374s-6.566 4.297-10.506 4.297h-134.278c-1.952.003-3.885-.374-5.689-1.11s-3.444-1.816-4.824-3.179c-1.381-1.363-2.476-2.982-3.222-4.763-.746-1.782-1.129-3.691-1.126-5.619v-326.6517c0-1.9275.384-3.8361 1.131-5.6169.747-1.7807 1.842-3.3988 3.222-4.7617s3.018-2.444 4.821-3.1816 3.736-1.1172 5.687-1.1171h20.098v2.5466c0 3.2052 1.289 6.2792 3.584 8.5456s5.407 3.5397 8.653 3.5397h68.29c3.245 0 6.358-1.2733 8.652-3.5397 2.295-2.2664 3.584-5.3403 3.585-8.5456v-2.5466h21.416c1.951-.0006 3.884.3786 5.688 1.116 1.803.7374 3.442 1.8184 4.822 3.1815 1.38 1.363 2.474 2.9813 3.221 4.7623s1.131 3.6898 1.13 5.6175z" fill="#fff"/><g fill="#e6e6e6"><path d="m414.75 230.913h-136.559v17.714h136.559z"/><path d="m414.75 262.404h-136.559v17.714h136.559z"/><path d="m414.75 293.896h-136.559v17.714h136.559z"/></g><path d="m399.65 72.7977c7.252 0 13.131-5.8747 13.131-13.1216 0-7.2468-5.879-13.1215-13.131-13.1215s-13.13 5.8747-13.13 13.1215c0 7.2469 5.878 13.1216 13.13 13.1216z" fill="#fcc300"/><path d="m414.477 103.633h-136.559v90.539h136.559z" fill="#e6e6e6"/><path d="m327.484 154.539c3.988 14.729 17.645 23.851 17.645 23.851s7.192-14.758 3.205-29.487-17.644-23.851-17.644-23.851-7.193 14.758-3.206 29.487z" fill="#3f3d56"/><path d="m333.343 151.374c10.941 10.643 12.278 27.004 12.278 27.004s-16.403-.895-27.344-11.538-12.277-27.005-12.277-27.005 16.402.895 27.343 11.539z" fill="#fcc300"/><path d="m363.758 154.539c-3.987 14.729-17.644 23.851-17.644 23.851s-7.193-14.758-3.206-29.487 17.645-23.851 17.645-23.851 7.192 14.758 3.205 29.487z" fill="#3f3d56"/><path d="m357.898 151.374c-10.941 10.643-12.277 27.004-12.277 27.004s16.403-.895 27.344-11.538 12.277-27.005 12.277-27.005-16.403.895-27.344 11.539z" fill="#fcc300"/><path d="m222 228.235s-8.127 13.412-5.225 17.043c2.903 3.631-21.775 3.722-21.775 3.722s3.707-19.51 2.616-24z" fill="#ffb8b8"/><path d="m209 233c-14.359 0-26-11.417-26-25.5s11.641-25.5 26-25.5 26 11.417 26 25.5-11.641 25.5-26 25.5z" fill="#2f2e41"/><path d="m148 347v15l-15-3.125 1.25-10.625z" fill="#ffb8b8"/><path d="m93.8713 350-42.8713 7.028 10.8778 15.972s30.0739-10.222 37.7523-10.222c7.6789 0-5.7588-12.778-5.7588-12.778z" fill="#ffb8b8"/><path d="m191.255 319.111s-32.273-36.951-42.6-35.039c-10.328 1.911-14.846 13.378-14.846 13.378l-5.809 56.701s20.655 1.911 20.655 0c0-1.912 3.872-42.685 3.872-42.685s30.337 66.257 46.473 22.298z" fill="#d0cde1"/><path d="m243 343.674s-.639 33.265-19.823 35.17c-19.184 1.904-40.286-14.217-40.286-14.217l-34.531-16.426s-40.926 21.506-53.0753 15.791c0 0-12.7892-13.334-4.4762-17.144 8.3129-3.809.6394 0 .6394 0l49.2381-25.398s9.592-2.54 26.218 4.445c16.626 6.984 39.007 10.159 39.007 10.159z" fill="#d0cde1"/><path d="m211 235c-10.493 0-19-8.507-19-19s8.507-19 19-19 19 8.507 19 19-8.507 19-19 19z" fill="#ffb8b8"/><path d="m183.443 269.153 1.269 26.761s-.635 35.045 5.077 37.594c2.888 1.287 8.689 3.874 14.052 6.703 4.024 2.116 7.8 4.359 9.908 6.289.558.477 1.04 1.038 1.428 1.663 2.538 4.461 19.04 3.823 22.848.637 3.808-3.185 1.269 3.824 4.443 5.098 3.072 1.236 7.33-8.87 4.722-23.958-.083-.503-.178-1.013-.28-1.529-2.913-14.624 1.663-49.65.959-63.183-.041-1.034-.149-2.064-.324-3.084-1.904-10.195-26.199-30.942-30.744-22.104-5.597 10.909-18.456.943-20.665-4.021-12.693-.637-17.136 14.656-17.136 14.656z" fill="#fcc300"/><path d="m131.894 357s10.246 3.728 13.448 3.107 6.403 1.864 6.403 5.592c0 3.729 3.843 12.428-1.921 13.05-5.763.621-29.456-.622-34.579 1.242 0 0-23.0523.622-21.1313-8.699 1.9211-9.321 11.5263-8.699 11.5263-8.699s26.254-1.243 26.254-5.593z" fill="#2f2e41"/><path d="m57.0632 358.833s-1.2723-3.833-3.1809-3.833c-1.9085 0-17.1768 2.556-19.0854 1.917-1.9085-.639-24.1748-1.917-20.3577 8.944s16.5406 12.139 16.5406 12.139 22.9025-2.556 26.0835-1.917c3.1809.639 14.6321 0 12.7236-3.194-1.9086-3.195-13.996-8.945-12.7237-14.056z" fill="#2f2e41"/><path d="m115.37 266.691-3.346 14.469c-.037.161-.031.33.017.488l15.177 49.724c.06.197.182.366.347.479.165.114.362.165.558.145.196-.021.38-.111.52-.256.141-.145.23-.336.252-.542l2.099-19.37c.014-.129.002-.259-.036-.382l-13.931-44.822c-.058-.187-.173-.349-.327-.462-.153-.112-.338-.169-.526-.161-.187.007-.367.079-.512.203-.145.125-.248.296-.292.487z" fill="#3f3d56"/><path d="m116.187 268-3.187 12.467 13.812 45.533 3.188-14.093z" fill="#fff"/><path d="m186.899 335.418c-.541 1.592-56.197-.531-56.738-1.062-.471-.664-.869-1.376-1.188-2.123-.508-1.062-.973-2.123-.973-2.123l2.161-17.188 55.117-1.922s1.378 14.566 1.659 21.233c.095 1.06.083 2.127-.038 3.185z" fill="#3f3d56"/><path d="m137.067 315-1.067 15h24v-15z" fill="#000" opacity=".1"/><path d="m168.154 320.027-.154-.027.725 6h14.275v-5.973z" fill="#000" opacity=".1"/><path d="m186.899 335.382c-.54 1.691-56.171-.564-56.711-1.127-.471-.706-.869-1.462-1.188-2.255h57.937c.095 1.126.083 2.259-.038 3.382z" fill="#000" opacity=".1"/><path d="m204.5 186c-4.142 0-7.5-3.134-7.5-7s3.358-7 7.5-7 7.5 3.134 7.5 7-3.358 7-7.5 7z" fill="#2f2e41"/><path d="m207.088 187s7.313 12.209 24.318 16.78.139 30.22.139 30.22 6.133-9.327-2.713-19.205c-8.846-9.877-23.082-16.63-21.744-27.795z" fill="#2f2e41"/><path d="m203.35 340.315c1.587 2.957 3.45 6.029 3.765 7.27.212.842 2.564.354 6.265-1.02 7.422-2.767 20.286-9.105 32.289-15.444.553-.289 1.078-.628 1.568-1.013-.084-.5-.18-1.007-.283-1.52-2.949-14.532 1.683-49.34.97-62.79l-5.468-1.798-10.923 10.131v43.059s-28.273 15.197-30.201 16.464c-.983.646.373 3.59 2.018 6.661z" fill="#000" opacity=".1"/><path d="m179.93 306.232-17.26 8.695s-10.229-10.558-16.622-2.485c-6.392 8.074 18.539 10.558 18.539 10.558s21.736-4.968 22.375-11.8c.639-6.831-7.032-4.968-7.032-4.968z" fill="#ffb8b8"/><path d="m208.946 329.407-10.219 2.521s-11.497-13.866-23.632-8.824 15.329 15.127 15.329 15.127 14.69 7.564 20.438 1.261-1.916-10.085-1.916-10.085z" fill="#ffb8b8"/><path d="m186.294 245c-.647.643-7.765 5.785-7.765 5.785s-1.941 24.424.647 29.566c2.589 5.142 4.53 5.142 2.589 7.713s-4.53.642-1.941 5.142c2.588 4.499 5.176 3.856 3.235 5.784s-1.294 2.571-1.294 2.571l-7.765 6.428s4.764 7.537 10.794 6.982 11.206-29.478 11.206-29.478z" fill="#fcc300"/><path d="m242.153 261 5.74 1.9s15.309 55.723-2.551 65.221-37.634 18.997-38.272 16.464-7.654-12.665-5.74-13.931c1.913-1.266 29.979-16.464 29.979-16.464v-43.059z" fill="#fcc300"/><path d="m233.718 284 1.282 30.246-34 15.754 31.434-15.754z" fill="#000" opacity=".1"/></svg>

<svg width="443" height="381" viewBox="0 0 443 381" fill="none" xmlns="http://www.w3.org/2000/svg">
<path d="M442.044 87.757V130.848C442.043 131.246 441.884 131.628 441.602 131.909C441.32 132.191 440.939 132.35 440.54 132.351H439.47V356.828C439.47 363.04 437 368.997 432.605 373.389C428.209 377.782 422.248 380.249 416.032 380.25H275.672C272.595 380.25 269.547 379.643 266.704 378.466C263.861 377.289 261.278 375.564 259.102 373.389C256.926 371.214 255.2 368.632 254.023 365.79C252.845 362.949 252.24 359.903 252.24 356.828V140.224H251.466C251.185 140.224 250.915 140.113 250.715 139.915C250.516 139.717 250.403 139.448 250.402 139.167V114.643C250.402 114.504 250.43 114.365 250.483 114.236C250.536 114.107 250.615 113.99 250.714 113.891C250.812 113.793 250.93 113.715 251.059 113.661C251.188 113.608 251.326 113.58 251.466 113.58H252.24V104.343H251.459C251.164 104.342 250.882 104.223 250.674 104.014C250.465 103.805 250.349 103.522 250.35 103.227V79.0378C250.35 78.7439 250.467 78.4623 250.675 78.2546C250.883 78.0468 251.165 77.9297 251.459 77.929H252.24V65.3192H251.446C251.317 65.3193 251.188 65.294 251.069 65.2446C250.949 65.1952 250.841 65.1227 250.749 65.0313C250.658 64.9399 250.585 64.8313 250.536 64.7118C250.486 64.5924 250.461 64.4643 250.461 64.335V51.1347C250.461 50.8729 250.564 50.6216 250.749 50.4359C250.933 50.2502 251.184 50.1452 251.446 50.1441H252.24V23.4154C252.241 17.2053 254.709 11.2497 259.104 6.85847C263.498 2.46727 269.458 0.000226188 275.672 2.3965e-10H416.032C422.247 -2.80745e-05 428.208 2.46673 432.603 6.85779C436.998 11.2488 439.468 17.2047 439.47 23.4154V86.2546H440.54C440.939 86.2557 441.32 86.4143 441.602 86.6958C441.884 86.9773 442.043 87.3589 442.044 87.757V87.757Z" fill="#3F3D56"/>
<path d="M352.614 12.0107H329.807C328.885 12.0107 328.138 12.7574 328.138 13.6784V15.6484C328.138 16.5694 328.885 17.3161 329.807 17.3161H352.614C353.536 17.3161 354.283 16.5694 354.283 15.6484V13.6784C354.283 12.7574 353.536 12.0107 352.614 12.0107Z" fill="#E6E8EC"/>
<path d="M361.248 17.6726C362.911 17.6726 364.259 16.3253 364.259 14.6634C364.259 13.0014 362.911 11.6542 361.248 11.6542C359.585 11.6542 358.236 13.0014 358.236 14.6634C358.236 16.3253 359.585 17.6726 361.248 17.6726Z" fill="#E6E8EC"/>
<path d="M428 26.6773V353.329C427.998 357.221 426.432 360.952 423.645 363.703C420.858 366.454 417.079 368 413.139 368H278.861C276.909 368.003 274.976 367.626 273.172 366.89C271.368 366.154 269.728 365.074 268.348 363.711C266.967 362.348 265.872 360.729 265.126 358.948C264.38 357.166 263.997 355.257 264 353.329V26.6773C264 24.7498 264.384 22.8412 265.131 21.0604C265.878 19.2797 266.973 17.6616 268.353 16.2987C269.733 14.9358 271.371 13.8547 273.174 13.1171C274.977 12.3795 276.91 11.9999 278.861 12H298.959V14.5466C298.959 17.7518 300.248 20.8258 302.543 23.0922C304.838 25.3586 307.95 26.6319 311.196 26.6319H379.486C382.731 26.6319 385.844 25.3586 388.138 23.0922C390.433 20.8258 391.722 17.7519 391.723 14.5466V12H413.139C415.09 11.9994 417.023 12.3786 418.827 13.116C420.63 13.8534 422.269 14.9344 423.649 16.2975C425.029 17.6605 426.123 19.2788 426.87 21.0598C427.617 22.8408 428.001 24.7496 428 26.6773V26.6773Z" fill="white"/>
<path d="M414.75 230.913H278.191V248.627H414.75V230.913Z" fill="#E6E6E6"/>
<path d="M414.75 262.404H278.191V280.118H414.75V262.404Z" fill="#E6E6E6"/>
<path d="M414.75 293.896H278.191V311.61H414.75V293.896Z" fill="#E6E6E6"/>
<path d="M399.65 72.7977C406.902 72.7977 412.781 66.923 412.781 59.6761C412.781 52.4293 406.902 46.5546 399.65 46.5546C392.398 46.5546 386.52 52.4293 386.52 59.6761C386.52 66.923 392.398 72.7977 399.65 72.7977Z" fill="#FCC300"/>
<path d="M414.477 103.633H277.918V194.172H414.477V103.633Z" fill="#E6E6E6"/>
<path d="M327.484 154.539C331.472 169.268 345.129 178.39 345.129 178.39C345.129 178.39 352.321 163.632 348.334 148.903C344.347 134.174 330.69 125.052 330.69 125.052C330.69 125.052 323.497 139.81 327.484 154.539Z" fill="#3F3D56"/>
<path d="M333.343 151.374C344.284 162.017 345.621 178.378 345.621 178.378C345.621 178.378 329.218 177.483 318.277 166.84C307.336 156.197 306 139.835 306 139.835C306 139.835 322.402 140.73 333.343 151.374Z" fill="#FCC300"/>
<path d="M363.758 154.539C359.771 169.268 346.114 178.39 346.114 178.39C346.114 178.39 338.921 163.632 342.908 148.903C346.895 134.174 360.553 125.052 360.553 125.052C360.553 125.052 367.745 139.81 363.758 154.539Z" fill="#3F3D56"/>
<path d="M357.898 151.374C346.957 162.017 345.621 178.378 345.621 178.378C345.621 178.378 362.024 177.483 372.965 166.84C383.906 156.197 385.242 139.835 385.242 139.835C385.242 139.835 368.839 140.73 357.898 151.374Z" fill="#FCC300"/>
<path d="M222 228.235C222 228.235 213.873 241.647 216.775 245.278C219.678 248.909 195 249 195 249C195 249 198.707 229.49 197.616 225L222 228.235Z" fill="#FFB8B8"/>
<path d="M209 233C194.641 233 183 221.583 183 207.5C183 193.417 194.641 182 209 182C223.359 182 235 193.417 235 207.5C235 221.583 223.359 233 209 233Z" fill="#2F2E41"/>
<path d="M148 347V362L133 358.875L134.25 348.25L148 347Z" fill="#FFB8B8"/>
<path d="M93.8713 350L51 357.028L61.8778 373C61.8778 373 91.9517 362.778 99.6301 362.778C107.309 362.778 93.8713 350 93.8713 350Z" fill="#FFB8B8"/>
<path d="M191.255 319.111C191.255 319.111 158.982 282.16 148.655 284.072C138.327 285.983 133.809 297.45 133.809 297.45L128 354.151C128 354.151 148.655 356.062 148.655 354.151C148.655 352.239 152.527 311.466 152.527 311.466C152.527 311.466 182.864 377.723 199 333.764L191.255 319.111Z" fill="#D0CDE1"/>
<path d="M243 343.674C243 343.674 242.361 376.939 223.177 378.844C203.993 380.748 182.891 364.627 182.891 364.627L148.36 348.201C148.36 348.201 107.434 369.707 95.2847 363.992C95.2847 363.992 82.4955 350.658 90.8085 346.848C99.1214 343.039 91.4479 346.848 91.4479 346.848L140.686 321.45C140.686 321.45 150.278 318.91 166.904 325.895C183.53 332.879 205.911 336.054 205.911 336.054L243 343.674Z" fill="#D0CDE1"/>
<path d="M211 235C200.507 235 192 226.493 192 216C192 205.507 200.507 197 211 197C221.493 197 230 205.507 230 216C230 226.493 221.493 235 211 235Z" fill="#FFB8B8"/>
<path d="M183.443 269.153L184.712 295.914C184.712 295.914 184.077 330.959 189.789 333.508C192.677 334.795 198.478 337.382 203.841 340.211C207.865 342.327 211.641 344.57 213.749 346.5C214.307 346.977 214.789 347.538 215.177 348.163C217.715 352.624 234.217 351.986 238.025 348.8C241.833 345.615 239.294 352.624 242.468 353.898C245.54 355.134 249.798 345.028 247.19 329.94C247.107 329.437 247.012 328.927 246.91 328.411C243.997 313.787 248.573 278.761 247.869 265.228C247.828 264.194 247.72 263.164 247.545 262.144C245.641 251.949 221.346 231.202 216.801 240.04C211.204 250.949 198.345 240.983 196.136 236.019C183.443 235.382 179 250.675 179 250.675L183.443 269.153Z" fill="#FCC300"/>
<path d="M131.894 357C131.894 357 142.14 360.728 145.342 360.107C148.544 359.486 151.745 361.971 151.745 365.699C151.745 369.428 155.588 378.127 149.824 378.749C144.061 379.37 120.368 378.127 115.245 379.991C115.245 379.991 92.1927 380.613 94.1137 371.292C96.0348 361.971 105.64 362.593 105.64 362.593C105.64 362.593 131.894 361.35 131.894 357Z" fill="#2F2E41"/>
<path d="M57.0632 358.833C57.0632 358.833 55.7909 355 53.8823 355C51.9738 355 36.7055 357.556 34.7969 356.917C32.8884 356.278 10.6221 355 14.4392 365.861C18.2563 376.722 30.9798 378 30.9798 378C30.9798 378 53.8823 375.444 57.0633 376.083C60.2442 376.722 71.6954 376.083 69.7869 372.889C67.8783 369.694 55.7909 363.944 57.0632 358.833Z" fill="#2F2E41"/>
<path d="M115.37 266.691L112.024 281.16C111.987 281.321 111.993 281.49 112.041 281.648L127.218 331.372C127.278 331.569 127.4 331.738 127.565 331.851C127.73 331.965 127.927 332.016 128.123 331.996C128.319 331.975 128.503 331.885 128.643 331.74C128.784 331.595 128.873 331.404 128.895 331.198L130.994 311.828C131.008 311.699 130.996 311.569 130.958 311.446L117.027 266.624C116.969 266.437 116.854 266.275 116.7 266.162C116.547 266.05 116.362 265.993 116.174 266.001C115.987 266.008 115.807 266.08 115.662 266.204C115.517 266.329 115.414 266.5 115.37 266.691V266.691Z" fill="#3F3D56"/>
<path d="M116.187 268L113 280.467L126.812 326L130 311.907L116.187 268Z" fill="white"/>
<path d="M186.899 335.418C186.358 337.01 130.702 334.887 130.161 334.356C129.69 333.692 129.292 332.98 128.973 332.233C128.465 331.171 128 330.11 128 330.11L130.161 312.922L185.278 311C185.278 311 186.656 325.566 186.937 332.233C187.032 333.293 187.02 334.36 186.899 335.418V335.418Z" fill="#3F3D56"/>
<path opacity="0.1" d="M137.067 315L136 330H160V315H137.067Z" fill="black"/>
<path opacity="0.1" d="M168.154 320.027L168 320L168.725 326H183V320.027H168.154Z" fill="black"/>
<path opacity="0.1" d="M186.899 335.382C186.359 337.073 130.728 334.818 130.188 334.255C129.717 333.549 129.319 332.793 129 332H186.937C187.032 333.126 187.02 334.259 186.899 335.382V335.382Z" fill="black"/>
<path d="M204.5 186C200.358 186 197 182.866 197 179C197 175.134 200.358 172 204.5 172C208.642 172 212 175.134 212 179C212 182.866 208.642 186 204.5 186Z" fill="#2F2E41"/>
<path d="M207.088 187C207.088 187 214.401 199.209 231.406 203.78C248.411 208.351 231.545 234 231.545 234C231.545 234 237.678 224.673 228.832 214.795C219.986 204.918 205.75 198.165 207.088 187Z" fill="#2F2E41"/>
<path opacity="0.1" d="M203.35 340.315C204.937 343.272 206.8 346.344 207.115 347.585C207.327 348.427 209.679 347.939 213.38 346.565C220.802 343.798 233.666 337.46 245.669 331.121C246.222 330.832 246.747 330.493 247.237 330.108C247.153 329.608 247.057 329.101 246.954 328.588C244.005 314.056 248.637 279.248 247.924 265.798L242.456 264L231.533 274.131V317.19C231.533 317.19 203.26 332.387 201.332 333.654C200.349 334.3 201.705 337.244 203.35 340.315Z" fill="black"/>
<path d="M179.93 306.232L162.67 314.927C162.67 314.927 152.441 304.369 146.048 312.442C139.656 320.516 164.587 323 164.587 323C164.587 323 186.323 318.032 186.962 311.2C187.601 304.369 179.93 306.232 179.93 306.232Z" fill="#FFB8B8"/>
<path d="M208.946 329.407L198.727 331.928C198.727 331.928 187.23 318.062 175.095 323.104C162.96 328.146 190.424 338.231 190.424 338.231C190.424 338.231 205.114 345.795 210.862 339.492C216.61 333.189 208.946 329.407 208.946 329.407Z" fill="#FFB8B8"/>
<path d="M186.294 245C185.647 245.643 178.529 250.785 178.529 250.785C178.529 250.785 176.588 275.209 179.176 280.351C181.765 285.493 183.706 285.493 181.765 288.064C179.824 290.635 177.235 288.706 179.824 293.206C182.412 297.705 185 297.062 183.059 298.99C181.118 300.918 181.765 301.561 181.765 301.561L174 307.989C174 307.989 178.764 315.526 184.794 314.971C190.824 314.416 196 285.493 196 285.493L186.294 245Z" fill="#FCC300"/>
<path d="M242.153 261L247.893 262.9C247.893 262.9 263.202 318.623 245.342 328.121C227.482 337.619 207.708 347.118 207.07 344.585C206.432 342.052 199.416 331.92 201.33 330.654C203.243 329.388 231.309 314.19 231.309 314.19V271.131L242.153 261Z" fill="#FCC300"/>
<path opacity="0.1" d="M233.718 284L235 314.246L201 330L232.434 314.246L233.718 284Z" fill="black"/>
</svg>
